X: 23674
T: Linen Cap, The
R: reel
M: 4/4
K: Amajor
|:a2ed cAAc|Bcde fBB2|a2ed cAAc|dfed cAA2|
a2ed cAAc|Bcde fBB2|a2ae f2fe|1 faed cAA2:|2 faed cAAB||
cAA2 cdec|dcde fBB2|cAA2 cdec|dfed cAAB|
cAA2 cdec|dcde fBB2|a2ae f2fe|faed cAA2||

